X: 1
T:Dashing White Sergeant
R:Reel
O:England
O:Scotland
M:4/4
K:D
FE|\
D2D2 DEFG|A2A2 A2fe|d2B2 A2F2|B2E2 EGFE|\
D2D2 DEFG|A2A2 A2f2|e2d2 c2B2|A6:|*
E2|\
A2AB c2cd|e2ec A3A|B2Bc d2de|f2fd B3B|\
c2A2 d2A2|e2A2 f2ef|g2f2 e2d2|c2B2 A2G2|
F2d2 dcde|d2A2 A3A|B2e2 edef|e2B2 B3B|\
A2d2 dcde|f2d2 dcde|f2z2 a2z2|1 d2cB AG:|2 d6||
